X:1
T: The Laird of Macfarlane's Strathspey
C:
R:Strathspey
Q: 128
K:C
M:4/4
L:1/16
e2|cG3 G4 EC3 C4|e3g d3f ec3 d4|cG3 G4 EC3 C4|e3g d3e ccc2 c2e2|
cG3 G4 EC3 C4|e3g d3f ec3 d4|cG3 G4 EC3 C4|e3g d3e ccc2 c2e2|
g3a g3e d3c d2e2|c3G A3E c3E D4|g3a g3e d3c d2e2|cG3 G3A c3d c2e2|
g3a g3e d3c d2e2|c3G A3E c3E D3E|C3E D3F EG3 G3f|e3g d3e ccc2 c2e2|
cG3 G4 EC3 C4|e3g d3f ec3 d4|cG3 G4 EC3 C4|e3g d3e ccc2 c2e2|
g3a g3e d3c d2e2|c3G A3E c3E D3E|C3E D3F EG3 G3f|e3g d3e ccc2 c2||
